X:1
T:St. Bede, 87.87.87
T:St. Bede, 87.87.87
T:Philip Armes, 1875
T:Public Domain Courtesy of the Cyber Hymnal™
C:Philip Armes, 1875
Z:Public Domain
Z:Courtesy of the Cyber Hymnal™
%%score ( 1 2 ) ( 3 4 )
L:1/8
Q:1/4=110
M:4/4
K:G
V:1 treble 
V:2 treble 
V:3 bass 
V:4 bass 
V:1
 [GB]2 c2 [Dd]2 [GB]2 | [Ge]2 [Ad]2 (BA) [DG]2 | [GB]2 A2 [Ad]2 [FA]2 | [FA]2 [EG]2 [DF]4 | %4
 [Fd]2 [DF]2 [E^G]2 [EG]2 | [EA]2 [EB]2 [Ed]2 [Ec]2 | [Ec]2 [EB]2 e2 [Gd]2 | [Fc]2 [GB]2 [FA]4 | %8
 (Bc) [Gd]2 (dc) [DB]2 | ([EG][FA]) [GB]2 ([GB][FA]) [EG]2 | [Ge]2 [Fd]2 c2 [DB]2 | %11
 [EB]2 [FA]2 [DG]4 |] %12
V:2
 x2 (FE) x4 | x4 G2 x2 | x2 (EA) x4 | x8 | x8 | x8 | x4 (EF) x2 | x8 | D2 x F2 x3 | x8 | %10
 x4 (ED) x2 | x8 |] %12
V:3
 [G,D]2 [A,C]2 B,2 D2 | [E,C]2 [F,A,]2 (DC) [G,B,]2 | [G,D]2 [G,^C]2 [F,D]2 [F,D]2 | %3
 [G,B,]2 [A,^C]2 [F,A,]4 | [D,A,]2 [D,A,]2 [D,B,]2 B,2 | [C,C]2 [E,^G,]2 [G,B,]2 A,2 | %6
 [E,A,]2 [D,^G,]2 [C,A,]2 [B,,B,]2 | [A,,C]2 [G,,D]2 [D,D]4 | (G,A,) [G,B,]2 (B,A,) G,2 | %9
 [E,B,]2 [E,E]2 [B,,^D]2 [E,B,]2 | [C,C]2 [D,A,]2 ([E,G,][F,A,]) G,2 | [C,G,]2 [D,C]2 [G,,B,]4 |] %12
V:4
 x4 (B,A,) (G,F,) | x4 G,2 x2 | x8 | x8 | x6 (E,D,) | x6 A,2 | x8 | x8 | G,2 x D,2 G,2 x | x8 | %10
 x6 G,2 | x8 |] %12

